X:55
T:Lei courdello
O:France
A:Provence
R:Danse trad.
S:Carnet du tambourinaire Ginas (1924)
C:Trad.
Z:Transcrit et/ou corrig par Michel BELLON - 2005-03-06
Z:Pour toute observation mailto:galouvielle@free.fr
M:2/4
L:1/8
K:Bb
d>c Bf | fe d2 |  d>c de | c2Bz | d>c Bf | fed2 | d>cde | c2Bz | \
